X: 427
T: Terry heigh ho the grinder
C:anon.
O:Ireland
B:Francis O'Neill: "The Dance Music of Ireland" (1907) no. 427
R:Hop, slip jig
Z:Transcribed by Frank Nordberg - http://www.musicaviva.com
F:http://www.musicaviva.com/abc/tunes/ireland/oneill-1001/oneill-1001-042
7.abc
M:9/8
L:1/8
K:Ador
ABA A2B G3|ABA A2B d2B|ABA A2B G3|GAG GAB d2B:|gfg edc BAG|gfg efg a2f|
gfg edc BAG|ABA A2B d2B|gfg edc BAG|gfg efg a2a|bag agf gfe|dBA A2B d2B|]


